svgs/sharp-regular/computer-speaker.svg

<svg xmlns="http://www.w3.org/2000/svg" viewBox="0 0 640 512"><!--! Font Awesome Pro 6.6.0 by @fontawesome - https://fontawesome.com License - https://fontawesome.com/license (Commercial License) Copyright 2024 Fonticons, Inc. --><path d="M288 480l0-48-168 0-24 0 0 48 24 0 168 0zM48 32L0 32 0 80 0 336l0 48 48 0 240 0 0-48L48 336 48 80l240 0 0-48L48 32zM592 80l0 352-224 0 0-352 224 0zM368 32l-48 0 0 48 0 352 0 48 48 0 224 0 48 0 0-48 0-352 0-48-48 0L368 32zM480 176a32 32 0 1 0 0-64 32 32 0 1 0 0 64zM448 320a32 32 0 1 1 64 0 32 32 0 1 1 -64 0zm112 0a80 80 0 1 0 -160 0 80 80 0 1 0 160 0z"/></svg>

<svg xmlns="http://www.w3.org/2000/svg" viewBox="0 0 640 512"><!--! Font Awesome Pro 6.4.0 by @fontawesome - https://fontawesome.com License - https://fontawesome.com/license (Commercial License) Copyright 2023 Fonticons, Inc. --><path d="M288 480V432H120 96v48h24H288zM48 32H0V80 336v48H48 288V336H48V80H288V32H48zM592 80V432H368V80H592zM368 32H320V80 432v48h48H592h48V432 80 32H592 368zM480 176a32 32 0 1 0 0-64 32 32 0 1 0 0 64zM448 320a32 32 0 1 1 64 0 32 32 0 1 1 -64 0zm112 0a80 80 0 1 0 -160 0 80 80 0 1 0 160 0z"/></svg>
